build/svg/cmd/lc_insertvideo.svg

<?xml version="1.0" encoding="UTF-8" standalone="no"?>
<svg
   xmlns:dc="http://purl.org/dc/elements/1.1/"
   xmlns:cc="http://creativecommons.org/ns#"
   xmlns:rdf="http://www.w3.org/1999/02/22-rdf-syntax-ns#"
   xmlns:svg="http://www.w3.org/2000/svg"
   xmlns="http://www.w3.org/2000/svg"
   xmlns:sodipodi="http://sodipodi.sourceforge.net/DTD/sodipodi-0.dtd"
   xmlns:inkscape="http://www.inkscape.org/namespaces/inkscape"
   viewBox="0 0 24 24"
   version="1.1"
   id="svg4"
   sodipodi:docname="lc_insertvideo.svg"
   inkscape:export-filename="/home/jupiter007/Libreoffice yaru theme fullcolor/build/cmd/lc_insertvideo.png"
   inkscape:export-xdpi="95"
   inkscape:export-ydpi="95"
   inkscape:version="0.92.5 (2060ec1f9f, 2020-04-08)">
  <metadata
     id="metadata10">
    <rdf:RDF>
      <cc:Work
         rdf:about="">
        <dc:format>image/svg+xml</dc:format>
        <dc:type
           rdf:resource="http://purl.org/dc/dcmitype/StillImage" />
      </cc:Work>
    </rdf:RDF>
  </metadata>
  <defs
     id="defs8" />
  <sodipodi:namedview
     pagecolor="#ffffff"
     bordercolor="#666666"
     borderopacity="1"
     objecttolerance="10"
     gridtolerance="10"
     guidetolerance="10"
     inkscape:pageopacity="0"
     inkscape:pageshadow="2"
     inkscape:window-width="1920"
     inkscape:window-height="1011"
     id="namedview6"
     showgrid="true"
     inkscape:zoom="27.812867"
     inkscape:cx="11.23954"
     inkscape:cy="7.2807873"
     inkscape:window-x="0"
     inkscape:window-y="32"
     inkscape:window-maximized="1"
     inkscape:current-layer="svg4">
    <inkscape:grid
       type="xygrid"
       id="grid859" />
  </sodipodi:namedview>
  <path
     id="path28"
     d="m 6.5,2.5000798 h 11 V 20.500081 h -11 z"
     inkscape:connector-curvature="0"
     style="fill:#b549b5;fill-opacity:1;stroke-width:0.90241677" />
  <path
     id="path30"
     d="M 3.45,1.9983598 C 3.201483,1.9983848 3.000027,2.2009263 3,2.4507798 V 20.54758 C 3.000025,20.797434 3.201483,20.999973 3.45,21 h 17.1 c 0.248517,-2.5e-5 0.449973,-0.202566 0.45,-0.45242 V 2.4507798 c -2.5e-5,-0.2498535 -0.307836,-0.4523929 -0.556353,-0.45242 h -14.4504 z m 0.54999,1.001658 h 1.99998 v 1.000029 H 3.99999 Z m 2.99997,0 h 9.9999 L 16.99356,20.09516 h -9.9999 z m 10.9998,0 h 1.99998 v 1.000029 h -1.9989 z m -13.9995,2.999997 h 1.99998 v 1.000029 H 4.00026 Z m 14.0004,0 h 1.99998 v 1.000029 h -1.9998 z M 4.00026,9.0000118 H 6.00024 V 9.99986 H 4.00026 Z m 14.0004,0 h 1.99998 V 9.99986 h -1.9998 z M 4.00026,12.000461 h 1.99998 v 1.00003 H 4.00026 Z m 14.0004,0 h 1.99998 v 1.00003 h -1.9998 z M 4.00026,15.000006 H 6.00024 L 6,16.00008 H 4.00002 Z m 14.0004,0 h 1.99998 L 20,16.00008 H 18.0002 Z M 4.00026,18.000455 H 6.00024 L 6,19.00008 H 4.00002 Z m 14.0004,0 h 1.99998 L 20,19.00008 h -1.99998 z"
     inkscape:connector-curvature="0"
     style="opacity:0.7;stroke-width:0.90241677" />
  <path
     inkscape:connector-curvature="0"
     d="m 7.495,12.451977 h 9.00992"
     style="display:block;opacity:0.7;fill:none;stroke:#000000;stroke-width:0.99501193;stroke-linecap:square;stroke-linejoin:round"
     id="path32" />
  <rect
     style="opacity:1;fill:#ffffff;fill-opacity:1;fill-rule:evenodd;stroke:none;stroke-width:2;stroke-linecap:butt;stroke-linejoin:round;stroke-miterlimit:4;stroke-dasharray:none;stroke-opacity:1"
     id="rect829"
     width="2"
     height="1"
     x="3.999959"
     y="3.0000179" />
  <rect
     y="6.0000176"
     x="3.999959"
     height="1"
     width="2"
     id="rect831"
     style="opacity:1;fill:#ffffff;fill-opacity:1;fill-rule:evenodd;stroke:none;stroke-width:2;stroke-linecap:butt;stroke-linejoin:round;stroke-miterlimit:4;stroke-dasharray:none;stroke-opacity:1" />
  <rect
     y="9.0000181"
     x="3.999959"
     height="1"
     width="2"
     id="rect833"
     style="opacity:1;fill:#ffffff;fill-opacity:1;fill-rule:evenodd;stroke:none;stroke-width:2;stroke-linecap:butt;stroke-linejoin:round;stroke-miterlimit:4;stroke-dasharray:none;stroke-opacity:1" />
  <rect
     style="opacity:1;fill:#ffffff;fill-opacity:1;fill-rule:evenodd;stroke:none;stroke-width:2;stroke-linecap:butt;stroke-linejoin:round;stroke-miterlimit:4;stroke-dasharray:none;stroke-opacity:1"
     id="rect835"
     width="2"
     height="1"
     x="3.999959"
     y="12.000018" />
  <rect
     style="opacity:1;fill:#ffffff;fill-opacity:1;fill-rule:evenodd;stroke:none;stroke-width:2;stroke-linecap:butt;stroke-linejoin:round;stroke-miterlimit:4;stroke-dasharray:none;stroke-opacity:1"
     id="rect837"
     width="2"
     height="1"
     x="3.999959"
     y="15.000018" />
  <rect
     y="18.000017"
     x="3.999959"
     height="1"
     width="2"
     id="rect839"
     style="opacity:1;fill:#ffffff;fill-opacity:1;fill-rule:evenodd;stroke:none;stroke-width:2;stroke-linecap:butt;stroke-linejoin:round;stroke-miterlimit:4;stroke-dasharray:none;stroke-opacity:1" />
  <rect
     y="3.0000179"
     x="17.999958"
     height="1"
     width="2"
     id="rect841"
     style="opacity:1;fill:#ffffff;fill-opacity:1;fill-rule:evenodd;stroke:none;stroke-width:2;stroke-linecap:butt;stroke-linejoin:round;stroke-miterlimit:4;stroke-dasharray:none;stroke-opacity:1" />
  <rect
     style="opacity:1;fill:#ffffff;fill-opacity:1;fill-rule:evenodd;stroke:none;stroke-width:2;stroke-linecap:butt;stroke-linejoin:round;stroke-miterlimit:4;stroke-dasharray:none;stroke-opacity:1"
     id="rect843"
     width="2"
     height="1"
     x="17.999958"
     y="6.0000176" />
  <rect
     style="opacity:1;fill:#ffffff;fill-opacity:1;fill-rule:evenodd;stroke:none;stroke-width:2;stroke-linecap:butt;stroke-linejoin:round;stroke-miterlimit:4;stroke-dasharray:none;stroke-opacity:1"
     id="rect845"
     width="2"
     height="1"
     x="17.999958"
     y="9.0000181" />
  <rect
     y="12.000018"
     x="17.999958"
     height="1"
     width="2"
     id="rect847"
     style="opacity:1;fill:#ffffff;fill-opacity:1;fill-rule:evenodd;stroke:none;stroke-width:2;stroke-linecap:butt;stroke-linejoin:round;stroke-miterlimit:4;stroke-dasharray:none;stroke-opacity:1" />
  <rect
     y="15.000018"
     x="17.999958"
     height="1"
     width="2"
     id="rect849"
     style="opacity:1;fill:#ffffff;fill-opacity:1;fill-rule:evenodd;stroke:none;stroke-width:2;stroke-linecap:butt;stroke-linejoin:round;stroke-miterlimit:4;stroke-dasharray:none;stroke-opacity:1" />
  <rect
     style="opacity:1;fill:#ffffff;fill-opacity:1;fill-rule:evenodd;stroke:none;stroke-width:2;stroke-linecap:butt;stroke-linejoin:round;stroke-miterlimit:4;stroke-dasharray:none;stroke-opacity:1"
     id="rect851"
     width="2"
     height="1"
     x="17.999958"
     y="18.000017" />
  <circle
     style="opacity:1;vector-effect:none;fill:#46a926;fill-opacity:1;stroke:none;stroke-width:3.49999976;stroke-linecap:butt;stroke-linejoin:round;stroke-miterlimit:4;stroke-dasharray:none;stroke-dashoffset:0;stroke-opacity:1"
     id="path2644"
     cy="19.5"
     cx="19.500002"
     r="3.5" />
  <path
     inkscape:connector-curvature="0"
     id="path1063"
     overflow="visible"
     font-weight="400"
     style="color:#000000;font-weight:400;line-height:normal;font-family:sans-serif;text-indent:0;text-align:start;text-decoration:none;text-decoration-line:none;text-decoration-style:solid;text-decoration-color:#000000;text-transform:none;white-space:normal;overflow:visible;isolation:auto;mix-blend-mode:normal;fill:#ffffff;fill-opacity:1;marker:none"
     d="m 19,17 v 2 h -2 v 1 h 2 v 2 h 1 v -2 h 2 v -1 h -2 v -2 z" />
</svg>

<svg xmlns="http://www.w3.org/2000/svg" viewBox="0 0 24 24"><path d="M6.5 2.5h11v18h-11z" fill="#b549b5"/><path d="M3.45 1.998a.451.451 0 00-.45.453v18.097c0 .25.201.452.45.452h17.1c.249 0 .45-.203.45-.452V2.45c0-.25-.308-.453-.556-.453H5.994zM4 3h2v1H4zm3 0h10l-.006 17.095h-10zm11 0h2v1h-2zM4 6h2v1H4zm14 0h2v1h-2zM4 9h2v1H4zm14 0h2v1h-2zM4 12h2v1H4zm14 0h2v1h-2zM4 15h2v1H4zm14 0h2v1h-2zM4 18h2v1H4zm14 0h2v1h-2z" opacity=".7"/><path d="M7.495 12.452h9.01" display="block" opacity=".7" fill="none" stroke="#000" stroke-width=".995" stroke-linecap="square" stroke-linejoin="round"/><path fill="#fff" fill-rule="evenodd" d="M4 3h2v1H4zM4 6h2v1H4zM4 9h2v1H4zM4 12h2v1H4zM4 15h2v1H4zM4 18h2v1H4zM18 3h2v1h-2zM18 6h2v1h-2zM18 9h2v1h-2zM18 12h2v1h-2zM18 15h2v1h-2zM18 18h2v1h-2z"/><circle cy="19.5" cx="19.5" r="3.5" fill="#46a926"/><path overflow="visible" font-weight="400" style="line-height:normal;text-indent:0;text-align:start;text-decoration-line:none;text-decoration-style:solid;text-decoration-color:#000;text-transform:none;white-space:normal;isolation:auto;mix-blend-mode:normal;marker:none" d="M19 17v2h-2v1h2v2h1v-2h2v-1h-2v-2z" color="#000" font-family="sans-serif" fill="#fff"/></svg>
